X:1
T:Title
%%score { 1 | ( 2 3 ) }
L:1/8
M:6/8
K:G
V:1 treble nm="Grand Piano"
V:2 bass 
V:3 bass 
V:1
 z3 z2[Q:1/4=84] D | G>GG GAB | [CFA][B,DG][A,DF] [B,DG]2 B/c/ | d>ed GAB | %4
[M:5/8] [FA]-[FA]- [FA]3 |[M:1/8] D |[M:3/4] G2 GB AG | [FA]>[GB] [Ac] B2 d | %8
 dG [EGc][DGB] [DGB][CFA] |[M:5/8] [B,DG]-[B,DG]- [B,DG]3 |[M:1/8] [B,DG] | %11
[M:3/4] [CFA]>[CFA] [CFA][FA] [DG][FA] | B3 d2 G | [FA]>[FA] [FA][FA] [DG][FA] |[M:5/8] B3 d2 | %15
[M:1/8] d |[M:3/4] [Ge]>[Ge] [Ge] d2 d | cc c B2 D |[M:13/16] E[EA][EG][A,DF][DFB]3/2[CFA] | %19
[M:5/8] [B,DG]-[B,DG]- [B,DG]3 |[M:1/8] B/c/ |[M:3/4] d2 B/B/ d2 B/B/ | d3 B2 G | B>A GB- B/A/G | %24
[M:5/8] E3 D2 |[M:1/8] [F,D] |[M:3/4] [G,DG]>[G,DG] [G,DG] A2 A/A/ |[M:7/8] BBB [Gc]3 [Ge] | %28
[M:3/4] [Gd]>[GB] GA GF |[M:5/8] [B,DG]-[B,DG]- [B,DG]3 |] %30
V:2
 z3 z2 [G,B,] | [G,B,D]>[G,B,D][G,B,D] [G,B,D][K:treble][G,CD][G,DG] | z3 z2 [G,D] | %3
 [G,B,G]>[G,CG][G,B,G] [B,D][A,DF][G,DG] |[M:5/8][K:bass] [D,D]-[D,D]- [D,D]3 |[M:1/8] [F,C] | %6
[M:3/4] [G,B,D]2[K:treble] [G,B,D][G,DG][K:bass] [G,CD][G,B,D] | %7
 [D,D]2 [D,D][K:treble] [G,DG]2 [G,B,G] | [G,B,G][K:bass][G,B,] C,D, D,D, |[M:5/8] G,,-G,,- G,,3 | %10
[M:1/8] G,, |[M:3/4] D,>D, D,[D,C] [D,B,][D,D] | [G,DG]3 [G,B,G]2[K:bass] [G,B,D] | %13
 [D,C]>[D,C] [D,C][D,C] [D,B,][D,D] |[M:5/8][K:treble] [G,DG]3 [G,B,G]2 |[M:1/8] [G,B,G] | %16
[M:3/4][K:bass] [C,C]>[C,C] [C,C][K:treble] [G,B,G]2 [G,B,G] | %17
 [F,A,D][F,A,D] [F,A,D] [G,D]2 [B,,G,] |[M:13/16] [C,G,C][C,C][C,C]D,D,3/2D, | %19
[M:5/8] G,,-G,,- G,,3 |[M:1/8][K:treble] [G,G] | %21
[M:3/4] [G,B,G]2 [G,DG]/[G,DG]/ [G,B,G]2 [G,DG]/[G,DG]/ | [G,B,G]3 [G,DG]2[K:bass] G, | %23
 B,>A, G,B,- B,/A,/G, |[M:5/8] E,3 D,2 |[M:1/8] D, |[M:3/4] B,,>B,, B,, [D,F,D]2 [D,F,D]/[D,F,D]/ | %27
[M:7/8] [G,D][G,D][=F,G,D] [E,G,]3 [C,C] |[M:3/4] [D,B,]>[D,D] [D,B,D][D,CD] [D,B,D][D,A,D] | %29
[M:5/8] [G,,G,]-[G,,G,]- [G,,G,]3 |] %30
V:3
 x6 | x4[K:treble] x2 | D,D,D, G,,2 z/ A,/ | x6 |[M:5/8][K:bass] x5 |[M:1/8] x | %6
[M:3/4] x2[K:treble] x2[K:bass] x2 | x3[K:treble] x3 | x[K:bass] x5 |[M:5/8] x5 |[M:1/8] x | %11
[M:3/4] x6 | x5[K:bass] x | x6 |[M:5/8][K:treble] x5 |[M:1/8] x |[M:3/4][K:bass] x3[K:treble] x3 | %17
 x6 |[M:13/16] x13/2 |[M:5/8] x5 |[M:1/8][K:treble] z/ A,/ |[M:3/4] x6 | x5[K:bass] x | x6 | %24
[M:5/8] x5 |[M:1/8] x |[M:3/4] x6 |[M:7/8] x7 |[M:3/4] x6 |[M:5/8] x5 |] %30

